azure-patterns/svg-hybrid-workloads.svg

<svg xmlns="http://www.w3.org/2000/svg" viewBox="0 0 179 90">
                                
                            
  <path d="M170.55 73.6999C170.05 73.6999 169.55 73.7999 169.05 73.7999C169.75 72.5999 170.15 71.1999 170.15 69.6999C170.15 65.1999 166.55 61.5999 162.05 61.5999C158.25 61.5999 155.05 64.1999 154.25 67.6999C152.65 66.1999 150.45 65.2999 148.05 65.2999C144.05 65.2999 140.55 67.8999 139.25 71.4999C138.65 71.3999 138.15 71.2999 137.55 71.2999C132.45 71.2999 128.25 75.4999 128.25 80.5999C128.25 85.6999 132.45 89.8999 137.55 89.8999C141.55 89.8999 166.05 89.8999 170.55 89.8999C175.05 89.8999 178.75 86.1999 178.75 81.6999C178.75 77.1999 175.05 73.6999 170.55 73.6999Z" fill="#CCEEFA"></path>
  <path d="M99.05 5.5C87.15 5.5 77.35 14.4 75.85 25.8C72.95 21.9 68.25 19.3 63.05 19.3C54.15 19.3 47.05 26.5 47.05 35.3C47.05 44.1 54.25 51.3 63.05 51.3C70.35 51.3 90.15 52.1 99.05 52.1C111.95 52.1 122.45 41.6 122.45 28.7C122.45 15.8 111.95 5.5 99.05 5.5Z" fill="#CCEEFA"></path>
  <path d="M116.95 85.0999C135.507 85.0999 150.55 70.0567 150.55 51.4999C150.55 32.9431 135.507 17.8999 116.95 17.8999C98.3932 17.8999 83.35 32.9431 83.35 51.4999C83.35 70.0567 98.3932 85.0999 116.95 85.0999Z" fill="#91D5EB"></path>
  <path d="M102.35 60.9C101.15 64.1 101.05 68.7 103.85 70.4C106.65 72.1 108.05 70.4 109.05 73.4C110.05 76.4 110.35 78.9 114.25 78.1C118.05 77.3 117.45 75.1 116.95 70.8C116.45 66.5 118.45 66 119.25 63.8C120.05 61.6 115.95 56.1 109.55 57C103.25 57.7 102.35 60.9 102.35 60.9Z" fill="#99C864"></path>
  <path d="M97.85 32.3999C99.35 29.5999 105.05 30.5999 106.35 26.8999C107.65 23.1999 104.85 18.8999 100.05 17.3999C95.25 15.8999 87.85 15.6999 82.55 24.0999C77.25 32.4999 75.85 39.5999 78.55 50.0999C81.25 60.5999 88.25 59.5999 91.25 59.3999C94.25 59.1999 100.75 59.8999 101.95 50.0999C103.05 40.1999 94.35 39.0999 97.85 32.3999Z" fill="#99C864"></path>
  <path d="M143.75 73.9C141.25 72.2 134.95 72.4 133.45 75.2C131.95 78 130.25 84.5 131.45 85.2C132.55 85.9 146.25 75.6 143.75 73.9Z" fill="#98C873"></path>
  <path d="M87.15 47C87.15 39.7 89.45 33 93.35 27.5C87.15 33.6 83.35 42.1 83.35 51.5C83.35 70.1 98.35 85.1 116.95 85.1C128.25 85.1 138.25 79.5 144.35 71C138.25 77 129.95 80.6 120.85 80.6C102.25 80.6 87.15 65.6 87.15 47Z" fill="#83C3D8"></path>
  <path d="M142.45 73.2999C142.25 73.1999 142.05 73.1999 141.85 73.0999C138.95 75.4999 135.55 77.3999 131.95 78.5999C131.65 79.6999 131.35 80.7999 131.15 81.7999C135.55 79.8999 139.35 76.8999 142.45 73.2999Z" fill="#90BC5C"></path>
  <path d="M89.55 59.5C88.05 55.6 87.15 51.4 87.15 47C87.15 39.7 89.45 33 93.35 27.5C87.15 33.6 83.35 42.1 83.35 51.5C83.35 53.9 83.55 56.2 84.05 58.4C85.95 59.4 87.95 59.5 89.55 59.5Z" fill="#90BC5C"></path>
  <path d="M67.35 43.5999C66.75 43.5999 66.05 43.6999 65.45 43.7999C66.45 41.9999 66.95 39.8999 66.95 37.5999C66.95 30.2999 61.05 24.3999 53.75 24.3999C48.45 24.3999 43.85 27.5999 41.75 32.0999C39.55 30.9999 36.95 30.2999 34.35 30.2999C25.95 30.2999 19.05 36.4999 17.85 44.4999C16.35 43.8999 14.65 43.4999 12.95 43.4999C6.14999 43.5999 0.549988 49.1999 0.549988 56.0999C0.549988 62.9999 6.14999 68.5999 13.05 68.5999C18.35 68.5999 60.45 68.5999 67.35 68.5999C74.25 68.5999 79.85 62.9999 79.85 56.0999C79.85 49.1999 74.25 43.5999 67.35 43.5999Z" fill="#CCEEFA"></path>
  <path d="M67.35 43.5999C66.75 43.5999 66.05 43.6999 65.45 43.7999C66.45 41.9999 66.95 39.8999 66.95 37.5999C66.95 30.2999 61.05 24.3999 53.75 24.3999C52.75 24.3999 51.85 24.4999 50.95 24.6999C48.45 27.4999 46.85 31.2999 46.85 35.2999C46.85 44.1999 54.05 51.2999 62.85 51.2999C66.25 51.2999 72.45 51.4999 78.85 51.6999C77.35 46.9999 72.75 43.5999 67.35 43.5999Z" fill="#A3E0F6"></path>
  <path d="M52.45 12.2999L31.25 1.29989C29.95 0.599888 28.35 1.09989 27.75 2.39989L16.75 23.5999C16.05 24.9999 16.55 26.5999 17.95 27.2999L35.05 36.1999L43.95 63.6999L50.75 66.4999L53.75 60.7999L44.25 34.0999L53.65 15.9999C54.35 14.6999 53.85 12.9999 52.45 12.2999Z" fill="#FCBC30"></path>
  <path d="M53.65 15.9999C54.35 14.5999 53.85 12.9999 52.45 12.2999L31.25 1.2999C30.55 0.999901 29.85 0.899901 29.25 1.0999L50.25 66.2999L50.75 66.4999L53.75 60.7999L44.25 34.0999L53.65 15.9999Z" fill="#FBD63C"></path>
  <path d="M50.25 66.2998L50.75 66.5998L50.25 66.2998Z" fill="#FBD63C"></path>
  <path d="M31.75 12.7999C33.7934 12.7999 35.45 11.1434 35.45 9.0999C35.45 7.05645 33.7934 5.3999 31.75 5.3999C29.7065 5.3999 28.05 7.05645 28.05 9.0999C28.05 11.1434 29.7065 12.7999 31.75 12.7999Z" fill="white"></path>
  <path d="M43.5204 12.7153L24.4584 18.7693L24.973 20.3896L44.035 14.3356L43.5204 12.7153Z" fill="#FAB232"></path>
  <path d="M44.6253 17.5249L25.5633 23.5789L26.0779 25.1991L45.1399 19.1451L44.6253 17.5249Z" fill="#FAB232"></path>
  <path d="M133.55 31.1998C131.95 35.5998 135.55 37.1998 137.55 40.1998C139.55 43.1998 138.55 48.1998 137.55 51.9998C136.55 55.7998 137.95 62.0998 140.75 64.5998C143.55 67.0998 147.35 70.7998 150.55 66.4998C153.75 62.1998 157.75 54.4998 157.05 43.2998C156.35 32.0998 152.55 27.4998 150.25 25.4998C147.95 23.4998 136.95 22.0998 133.55 31.1998Z" fill="#99C864"></path>
</svg>

<svg xmlns="http://www.w3.org/2000/svg" viewBox="0 0 179 90"><path d="M170.55 73.7c-.5 0-1 .1-1.5.1.7-1.2 1.1-2.6 1.1-4.1 0-4.5-3.6-8.1-8.1-8.1-3.8 0-7 2.6-7.8 6.1-1.6-1.5-3.8-2.4-6.2-2.4-4 0-7.5 2.6-8.8 6.2-.6-.1-1.1-.2-1.7-.2-5.1 0-9.3 4.2-9.3 9.3 0 5.1 4.2 9.3 9.3 9.3h33c4.5 0 8.2-3.7 8.2-8.2 0-4.5-3.7-8-8.2-8zM99.05 5.5c-11.9 0-21.7 8.9-23.2 20.3-2.9-3.9-7.6-6.5-12.8-6.5-8.9 0-16 7.2-16 16s7.2 16 16 16c7.3 0 27.1.8 36 .8 12.9 0 23.4-10.5 23.4-23.4 0-12.9-10.5-23.2-23.4-23.2z" fill="#CCEEFA"/><path d="M116.95 85.1c18.557 0 33.6-15.043 33.6-33.6 0-18.557-15.043-33.6-33.6-33.6-18.557 0-33.6 15.043-33.6 33.6 0 18.557 15.043 33.6 33.6 33.6z" fill="#91D5EB"/><path d="M102.35 60.9c-1.2 3.2-1.3 7.8 1.5 9.5 2.8 1.7 4.2 0 5.2 3s1.3 5.5 5.2 4.7c3.8-.8 3.2-3 2.7-7.3s1.5-4.8 2.3-7c.8-2.2-3.3-7.7-9.7-6.8-6.3.7-7.2 3.9-7.2 3.9zM97.85 32.4c1.5-2.8 7.2-1.8 8.5-5.5 1.3-3.7-1.5-8-6.3-9.5s-12.2-1.7-17.5 6.7c-5.3 8.4-6.7 15.5-4 26s9.7 9.5 12.7 9.3c3-.2 9.5.5 10.7-9.3 1.1-9.9-7.6-11-4.1-17.7z" fill="#99C864"/><path d="M143.75 73.9c-2.5-1.7-8.8-1.5-10.3 1.3s-3.2 9.3-2 10c1.1.7 14.8-9.6 12.3-11.3z" fill="#98C873"/><path d="M87.15 47c0-7.3 2.3-14 6.2-19.5-6.2 6.1-10 14.6-10 24 0 18.6 15 33.6 33.6 33.6 11.3 0 21.3-5.6 27.4-14.1-6.1 6-14.4 9.6-23.5 9.6-18.6 0-33.7-15-33.7-33.6z" fill="#83C3D8"/><path d="M142.45 73.3c-.2-.1-.4-.1-.6-.2-2.9 2.4-6.3 4.3-9.9 5.5-.3 1.1-.6 2.2-.8 3.2 4.4-1.9 8.2-4.9 11.3-8.5zM89.55 59.5c-1.5-3.9-2.4-8.1-2.4-12.5 0-7.3 2.3-14 6.2-19.5-6.2 6.1-10 14.6-10 24 0 2.4.2 4.7.7 6.9 1.9 1 3.9 1.1 5.5 1.1z" fill="#90BC5C"/><path d="M67.35 43.6c-.6 0-1.3.1-1.9.2 1-1.8 1.5-3.9 1.5-6.2 0-7.3-5.9-13.2-13.2-13.2-5.3 0-9.9 3.2-12 7.7-2.2-1.1-4.8-1.8-7.4-1.8-8.4 0-15.3 6.2-16.5 14.2-1.5-.6-3.2-1-4.9-1-6.8.1-12.4 5.7-12.4 12.6 0 6.9 5.6 12.5 12.5 12.5h54.3c6.9 0 12.5-5.6 12.5-12.5s-5.6-12.5-12.5-12.5z" fill="#CCEEFA"/><path d="M67.35 43.6c-.6 0-1.3.1-1.9.2 1-1.8 1.5-3.9 1.5-6.2 0-7.3-5.9-13.2-13.2-13.2-1 0-1.9.1-2.8.3-2.5 2.8-4.1 6.6-4.1 10.6 0 8.9 7.2 16 16 16 3.4 0 9.6.2 16 .4-1.5-4.7-6.1-8.1-11.5-8.1z" fill="#A3E0F6"/><path d="M52.45 12.3l-21.2-11c-1.3-.7-2.9-.2-3.5 1.1l-11 21.2c-.7 1.4-.2 3 1.2 3.7l17.1 8.9 8.9 27.5 6.8 2.8 3-5.7-9.5-26.7 9.4-18.1c.7-1.3.2-3-1.2-3.7z" fill="#FCBC30"/><path d="M53.65 16c.7-1.4.2-3-1.2-3.7l-21.2-11c-.7-.3-1.4-.4-2-.2l21 65.2.5.2 3-5.7-9.5-26.7 9.4-18.1zM50.25 66.3l.5.3-.5-.3z" fill="#FBD63C"/><path d="M31.75 12.8a3.7 3.7 0 1 0 0-7.4 3.7 3.7 0 0 0 0 7.4z" fill="#fff"/><path d="M43.52 12.715L24.458 18.77l.515 1.62 19.062-6.053-.515-1.62zM44.625 17.525l-19.062 6.054.515 1.62 19.062-6.054-.515-1.62z" fill="#FAB232"/><path d="M133.55 31.2c-1.6 4.4 2 6 4 9s1 8 0 11.8c-1 3.8.4 10.1 3.2 12.6 2.8 2.5 6.6 6.2 9.8 1.9 3.2-4.3 7.2-12 6.5-23.2-.7-11.2-4.5-15.8-6.8-17.8s-13.3-3.4-16.7 5.7z" fill="#99C864"/></svg>
